src/assets/img/emotes/parano.svg

<svg xmlns:xlink="http://www.w3.org/1999/xlink" height="23.5" width="23.5" xmlns="http://www.w3.org/2000/svg"><g transform="translate(40.05 13)"><use height="23.45" transform="translate(-40 -13)" width="23.45" xlink:href="#a"/><use height="12.65" transform="translate(-35.3 -7.55)" width="13.8" xlink:href="#b"/></g><defs><path d="M-32.25 1.2q1.7-2.15 4.2-2.15 2.4-.05 3.95 2 1.5 2.05 1.25 4.05-5-2.85-10.3-.2-.85-1.55.9-3.7m2.3-3.45q-.95.9-2.2.9-1.3 0-2.25-.9-.9-.9-.9-2.2 0-1.3.9-2.2.95-.9 2.25-.9 1.25 0 2.2.9.9.9.9 2.2 0 1.3-.9 2.2m3.15.1q-.95-.85-.95-2.15 0-1.3.95-2.25.9-.85 2.15-.85 1.3 0 2.25.85.9.95.9 2.25t-.9 2.15q-.95.95-2.25.95-1.25 0-2.15-.95" transform="translate(35.3 7.55)" id="b" fill="#fff" fill-rule="evenodd"/><use height="23.45" width="23.45" xlink:href="#c" id="a"/><g id="c"><path d="m-3.35-10.25 3.4-.5 2.2.2q2.2.45 4 1.8L7.6-7.6q3.15 3.2 3.15 7.6 0 4.45-3.15 7.6v.05Q4.4 10.7.05 10.7l-2.4-.25q-2.3-.5-4.2-1.9l-1-.9-.05-.05q-3.15-3.15-3.1-7.55V-.1q-.05-2.95 1.45-5.35L-7.6-7.6l.7-.65 1.85-1.25 1.7-.75M1.9 1.85h-.05v.05l.05-.05" fill="#f39" fill-rule="evenodd" transform="translate(11.7 11.75)"/><path d="m4.1 19.35.05.05 1 .9q1.9 1.4 4.2 1.9M17.95 3q-1.8-1.35-4-1.8" fill="none" stroke="#f39" stroke-linecap="round" stroke-linejoin="round" stroke-width="2"/><path d="m9.35 22.2 2.4.25q4.35 0 7.55-3.05v-.05q3.15-3.15 3.15-7.6 0-4.4-3.15-7.6L17.95 3" fill="none" stroke="#c06" stroke-linecap="round" stroke-linejoin="round" stroke-width="2"/><path d="m13.95 1.2-2.2-.2-3.4.5m-1.7.75L4.8 3.5M2.45 6.3Q.95 8.7 1 11.65v.15q-.05 4.4 3.1 7.55" fill="none" stroke="#f9c" stroke-linecap="round" stroke-linejoin="round" stroke-width="2"/><path d="m8.35 1.5-1.7.75M4.8 3.5l-.7.65L2.45 6.3" fill="none" stroke="#fff" stroke-linecap="round" stroke-linejoin="round" stroke-width="2"/></g></defs></svg>

<?xml version="1.0" encoding="UTF-8" standalone="no"?>
<svg xmlns:xlink="http://www.w3.org/1999/xlink" height="23.5px" width="23.5px" xmlns="http://www.w3.org/2000/svg">
  <g transform="matrix(1.0, 0.0, 0.0, 1.0, 40.05, 13.0)">
    <use height="23.45" transform="matrix(1.0, 0.0, 0.0, 1.0, -40.0, -13.0)" width="23.45" xlink:href="#sprite0"/>
    <use height="12.65" transform="matrix(1.0, 0.0, 0.0, 1.0, -35.3, -7.55)" width="13.8" xlink:href="#shape1"/>
  </g>
  <defs>
    <g id="sprite0" transform="matrix(1.0, 0.0, 0.0, 1.0, 11.7, 11.75)">
      <use height="23.45" transform="matrix(1.0, 0.0, 0.0, 1.0, -11.7, -11.75)" width="23.45" xlink:href="#shape0"/>
    </g>
    <g id="shape0" transform="matrix(1.0, 0.0, 0.0, 1.0, 11.7, 11.75)">
      <path d="M-3.35 -10.25 L0.05 -10.75 2.25 -10.55 Q4.45 -10.1 6.25 -8.75 L7.6 -7.6 Q10.75 -4.4 10.75 0.0 10.75 4.45 7.6 7.6 L7.6 7.65 Q4.4 10.7 0.05 10.7 L-2.35 10.45 Q-4.65 9.95 -6.55 8.55 L-7.55 7.65 -7.6 7.6 Q-10.75 4.45 -10.7 0.05 L-10.7 -0.1 Q-10.75 -3.05 -9.25 -5.45 L-7.6 -7.6 -6.9 -8.25 -5.05 -9.5 -3.35 -10.25 M1.9 1.85 L1.85 1.85 1.85 1.9 1.9 1.85" fill="#ff3399" fill-rule="evenodd" stroke="none"/>
      <path d="M-7.6 7.6 L-7.55 7.65 -6.55 8.55 Q-4.65 9.95 -2.35 10.45 M6.25 -8.75 Q4.45 -10.1 2.25 -10.55" fill="none" stroke="#ff3399" stroke-linecap="round" stroke-linejoin="round" stroke-width="2.0"/>
      <path d="M-2.35 10.45 L0.05 10.7 Q4.4 10.7 7.6 7.65 L7.6 7.6 Q10.75 4.45 10.75 0.0 10.75 -4.4 7.6 -7.6 L6.25 -8.75" fill="none" stroke="#cc0066" stroke-linecap="round" stroke-linejoin="round" stroke-width="2.0"/>
      <path d="M2.25 -10.55 L0.05 -10.75 -3.35 -10.25 M-5.05 -9.5 L-6.9 -8.25 M-9.25 -5.45 Q-10.75 -3.05 -10.7 -0.1 L-10.7 0.05 Q-10.75 4.45 -7.6 7.6" fill="none" stroke="#ff99cc" stroke-linecap="round" stroke-linejoin="round" stroke-width="2.0"/>
      <path d="M-3.35 -10.25 L-5.05 -9.5 M-6.9 -8.25 L-7.6 -7.6 -9.25 -5.45" fill="none" stroke="#ffffff" stroke-linecap="round" stroke-linejoin="round" stroke-width="2.0"/>
    </g>
    <g id="shape1" transform="matrix(1.0, 0.0, 0.0, 1.0, 35.3, 7.55)">
      <path d="M-32.25 1.2 Q-30.55 -0.95 -28.05 -0.95 -25.65 -1.0 -24.1 1.05 -22.6 3.1 -22.85 5.1 -27.85 2.25 -33.15 4.9 -34.0 3.35 -32.25 1.2" fill="#ffffff" fill-rule="evenodd" stroke="none"/>
      <path d="M-29.95 -2.25 Q-30.9 -1.35 -32.15 -1.35 -33.45 -1.35 -34.4 -2.25 -35.3 -3.15 -35.3 -4.45 -35.3 -5.75 -34.4 -6.65 -33.45 -7.55 -32.15 -7.55 -30.9 -7.55 -29.95 -6.65 -29.05 -5.75 -29.05 -4.45 -29.05 -3.15 -29.95 -2.25" fill="#ffffff" fill-rule="evenodd" stroke="none"/>
      <path d="M-26.8 -2.15 Q-27.75 -3.0 -27.75 -4.3 -27.75 -5.6 -26.8 -6.55 -25.9 -7.4 -24.65 -7.4 -23.35 -7.4 -22.4 -6.55 -21.5 -5.6 -21.5 -4.3 -21.5 -3.0 -22.4 -2.15 -23.35 -1.2 -24.65 -1.2 -25.9 -1.2 -26.8 -2.15" fill="#ffffff" fill-rule="evenodd" stroke="none"/>
    </g>
  </defs>
</svg>
